src/ios-paper.svg

<svg xmlns="http://www.w3.org/2000/svg" viewBox="0 0 512 512" xml:space="preserve"><path d="M112 48v368H96V112H64v321.1c0 17 13.8 30.9 30.9 30.9h322.3c17 0 30.9-13.8 30.9-30.9V48H112zm48 64h128v16H160v-16zm0 160h192v16H160v-16zm240 96H160v-16h240v16zm0-160H160v-16h240v16z"/></svg>

<?xml version="1.0" encoding="utf-8"?>
<!-- Generator: Adobe Illustrator 18.1.1, SVG Export Plug-In . SVG Version: 6.00 Build 0)  -->
<svg version="1.1" id="Layer_1" xmlns="http://www.w3.org/2000/svg" xmlns:xlink="http://www.w3.org/1999/xlink" x="0px" y="0px"
	 viewBox="0 0 512 512" enable-background="new 0 0 512 512" xml:space="preserve">
<path d="M112,48v368H96V112H64v321.1c0,17,13.8,30.9,30.9,30.9h322.3c17,0,30.9-13.8,30.9-30.9V48H112z M160,112h128v16H160V112z
	 M160,272h192v16H160V272z M400,368H160v-16h240V368z M400,208H160v-16h240V208z"/>
</svg>
